X:1
T:Title
%%score { ( 1 3 ) | ( 2 4 ) }
L:1/8
M:6/8
K:C
V:1 treble nm="Grand Piano"
V:3 treble 
V:2 bass 
V:4 bass 
V:1
 z3 z2[Q:1/4=100] [EG] | [EG]2 [EG] [FA][EG][_E^F] | [EG]3 [CE]2 [EG] | [FA]2 [FA] [Ac][GB][FA] | %4
 [EG]3- [EG]2 [EG] | B2 B d2 d | [Ec]3 [Ge]2 [Ge] | [Gd]2 [B,GB] [C^FB]2 [CFA] | %8
 [B,G]3- [B,G]2 [B,G] | [CGc]2 [CGc] [Gd]2 [Gd] |[M:5/8] [Ge]3 [Ec]2 |[M:1/8] [EG] | %12
[M:3/4] [Gd]2 [Gd] [Ge]2 e | f3 d2 G | [Ec]2 [Ec][Ac] [GB][FA] | [EG]3 [Gc]2 [EG] | A2 c B2 d | %17
 [Ec]6 | e3 d3 | c[CGB] [CFA] [CEG]3 | [CFA][CFA] [CFA][CGc] [CGc][CGc] | [C^Fc][CFB] [CFc] d2 _e | %22
 e3 d3 | c[GB] [FA] [EG]3 | AA AB AB |[M:5/8] [Ec]-[Ec]- [Ec]3 |[M:3/4] e3 d3 | %27
 c[CGB] [CFA] [CEG]3 | [CFA][CFA] [CFA][CGc] [CGc][CGc] | [C^Fc][CFB] [CFc] d2 _e | e3 d3 | %31
 c[GB] [FA] [EG]3 | AA AB A[DFB] |[M:5/8] [CEc]-[CEc]- [CEc]3 |] %34
V:2
 z3 z2 [C,C] | [C,C]2 [C,C] [C,C]2 [C,C] | [C,C]3 [C,G,]2 [C,C] | [F,C]2 [F,C] [F,C]2 [F,C] | %4
 [C,C]3- [C,C]2 [C,C] | [G,DF]2 [G,DF] [G,B,F]2 [G,B,F] | [C,C]3 [C,C]2 [^C,_B,] | %7
 [D,B,]2 D, D,2 D, | G,3- G,2 F, | E,2 E, [D,B,]2 [D,B,] |[M:5/8] [C,C]3 [C,C]2 |[M:1/8] [C,C] | %12
[M:3/4] [F,B,]2 [F,B,] [E,C]2 [CG] | B,3- [G,B,]2 [G,B,F] | [C,C]2 [C,C] [F,C]2 [F,C] | %15
 [C,C]3 [E,C]2 [C,C] | [F,CF]2 [F,A,F] [G,DF]2 [G,B,F] | [C,C]6 | [CG]3 [G,B,F]3 | %19
 [A,CE]F, F, C,3 | F,F, F,E, E,E, | D,D, D,[K:treble] [G,B,F]3 | [CG]3 [^G,B,F]3 | %23
 [A,CE][F,C] [F,C] [C,C]3 | z2[K:treble] z D z2 |[M:5/8][K:bass] [C,C]-[C,C]- [C,C]3 | %26
[M:3/4][K:treble] [CG]3 [G,B,F]3 | [A,CE]F, F, C,3 | F,F, F,E, E,E, | D,D, D,[K:treble] [G,B,F]3 | %30
 [CG]3 [^G,B,F]3 | [A,CE][F,C] [F,C] [C,C]3 | z2[K:treble] z D z2 |[M:5/8][K:bass] C,-C,- C,3 |] %34
V:3
 x6 | x6 | x6 | x6 | x6 | x6 | x6 | x6 | x6 | x6 |[M:5/8] x5 |[M:1/8] x |[M:3/4] x6 | G6 | x6 | %15
 x6 | x6 | x6 | x6 | x6 | x6 | x6 | x6 | x6 | x6 |[M:5/8] x5 |[M:3/4] x6 | x6 | x6 | x6 | x6 | x6 | %32
 x6 |[M:5/8] x5 |] %34
V:4
 x6 | x6 | x6 | x6 | x6 | x6 | x6 | x6 | x6 | x6 |[M:5/8] x5 |[M:1/8] x |[M:3/4] x6 | D,4 z2 | x6 | %15
 x6 | x6 | x6 | x6 | x6 | x6 | x3[K:treble] x3 | x6 | x6 | %24
 [F,CF][K:treble][F,CF] [F,DF][G,F]- [G,CF][G,DF] |[M:5/8][K:bass] x5 |[M:3/4][K:treble] x6 | x6 | %28
 x6 | x3[K:treble] x3 | x6 | x6 | [F,CF][K:treble][F,CF] [F,DF][G,F]- [G,CF]G, | %33
[M:5/8][K:bass] x5 |] %34

